;FLAVOR:Marlin
;TIME:4394
;Filament used: 1.92551m
;Layer height: 0.38
;MINX:79.9
;MINY:103.9
;MINZ:0.425
;MAXX:210.1
;MAXY:171.1
;MAXZ:14.865
;Generated with Cura_SteamEngine 4.13.8
M82 ;absolute extrusion mode
;This G-Code has been generated specifically for the LulzBot TAZ 5 | Single Extruder

;SETTINGS
;Nozzle diameter = 0.4mm
;Filament name = Polymaker PolyLite PLA
;Filament type = PLA (Easy Printing) 2.85
;Filament weight = ~14.37g
;Extruder temp = M109 S205
;Bed temp = M190 S65

M73 P0                                      ; clear GLCD progress bar
M75			                                ; start GLCD timer
M140 S65    ; start bed heating up
G90                                         ; absolute positioning
M107                                        ; disable fans
M82                                         ; set extruder to absolute mode
G28 X0 Y0                                   ; home X and Y
G28 Z0                                      ; home Z
G1 Z15.0 F175                    ; move extruder up
M117 Heating...                             ; progress indicator message on LCD
M109 R205  ; wait for extruder to reach printing temp
M190 R65    ; wait for bed to reach printing temp
G92 E0                                      ; set extruder position to 0
G1 F200 E0                                  ; prime the nozzle with filament
G92 E0                                      ; re-set extruder position to 0
G1 F175                          ; set travel speed
M203 X192 Y208 Z3                           ; set limits on travel speed
M117 TAZ 5 Printing...                      ; progress indicator message on LCD
;Start G-Code End

G92 E0
G92 E0
G1 F600 E-1.75
;LAYER_COUNT:39
;LAYER:0
M106 S255
G0 F2625 X82.361 Y105.375 Z0.425
;TYPE:SKIRT
G1 F600 E0
G1 F900 X82.858 Y105.012 E0.01558
G1 X83.315 Y104.733 E0.02914
G1 X83.812 Y104.485 E0.0432
G1 X84.388 Y104.261 E0.05884
G1 X85.013 Y104.084 E0.07529
G1 X85.685 Y103.971 E0.09254
G1 X86.351 Y103.921 E0.10945
G1 X87.45 Y103.9 E0.13727
G1 X105.34 Y103.9 E0.59017
G1 X105.921 Y103.91 E0.60489
G1 X106.573 Y103.941 E0.62141
G1 X107.1 Y104.004 E0.63485
G1 X107.243 Y104.031 E0.63853
G1 X108.907 Y104.385 E0.6816
G1 X111.304 Y104.866 E0.74349
G1 X114.019 Y105.334 E0.81324
G1 X116.714 Y105.719 E0.88216
G1 X119.425 Y106.028 E0.95123
G1 X122.152 Y106.263 E1.02052
G1 X124.878 Y106.419 E1.08965
G1 X127.571 Y106.497 E1.15785
G1 X130.301 Y106.499 E1.22696
G1 X133.067 Y106.423 E1.29701
G1 X135.755 Y106.272 E1.36517
G1 X138.481 Y106.042 E1.43443
G1 X141.193 Y105.736 E1.50352
G1 X143.862 Y105.358 E1.57176
G1 X146.598 Y104.891 E1.64203
G1 X149.263 Y104.358 E1.71083
G1 X150.491 Y104.084 E1.74268
G1 X150.99 Y103.99 E1.75554
G1 X151.487 Y103.933 E1.7682
G1 X151.691 Y103.924 E1.77337
G1 X152.95 Y103.9 E1.80525
G1 X202.855 Y103.9 E3.06864
G1 X203.369 Y103.91 E3.08165
G1 X204.128 Y103.949 E3.10089
G1 X204.777 Y104.038 E3.11748
G1 X205.319 Y104.167 E3.13158
G1 X205.843 Y104.342 E3.14557
G1 X206.39 Y104.58 E3.16067
G1 X206.858 Y104.831 E3.17411
G1 X207.335 Y105.143 E3.18854
G1 X207.812 Y105.521 E3.20395
G1 X208.243 Y105.927 E3.21894
G1 X208.619 Y106.354 E3.23334
G1 X208.985 Y106.853 E3.24901
G1 X209.264 Y107.31 E3.26257
G1 X209.511 Y107.803 E3.27653
G1 X209.739 Y108.387 E3.2924
G1 X209.893 Y108.909 E3.30617
G1 X210.006 Y109.469 E3.32064
G1 X210.07 Y110.059 E3.33566
G1 X210.08 Y110.27 E3.34101
G1 X210.1 Y111.403 E3.3697
G1 X210.099 Y112.718 E3.40299
G1 X210.092 Y113.235 E3.41608
G1 X210.067 Y113.81 E3.43065
G1 X209.971 Y114.564 E3.44989
G1 X209.869 Y115.047 E3.46239
G1 X209.321 Y117.481 E3.52555
G1 X208.797 Y120.159 E3.59463
G1 X208.348 Y122.857 E3.66387
G1 X207.982 Y125.527 E3.7321
G1 X207.682 Y128.276 E3.8021
G1 X207.467 Y130.965 E3.87039
G1 X207.326 Y133.692 E3.93952
G1 X207.262 Y136.422 E4.00865
G1 X207.276 Y139.151 E4.07774
G1 X207.366 Y141.881 E4.14689
G1 X207.533 Y144.576 E4.21525
G1 X207.78 Y147.325 E4.28512
G1 X208.101 Y150.034 E4.35418
G1 X208.497 Y152.715 E4.42279
G1 X208.968 Y155.392 E4.4916
G1 X209.637 Y158.597 E4.57449
G1 X209.93 Y159.89 E4.60805
G1 X210.057 Y160.698 E4.62876
G1 X210.083 Y161.16 E4.64047
G1 X210.1 Y162.17 E4.66605
G1 X210.1 Y163.855 E4.7087
G1 X210.09 Y164.369 E4.72172
G1 X210.051 Y165.128 E4.74096
G1 X209.962 Y165.778 E4.75757
G1 X209.823 Y166.356 E4.77262
G1 X209.658 Y166.84 E4.78556
G1 X209.408 Y167.412 E4.80137
G1 X209.153 Y167.885 E4.81497
G1 X208.857 Y168.335 E4.8286
G1 X208.479 Y168.812 E4.84401
G1 X208.056 Y169.259 E4.85959
G1 X207.633 Y169.629 E4.87382
G1 X207.152 Y169.982 E4.88892
G1 X206.61 Y170.306 E4.90491
G1 X205.988 Y170.601 E4.92234
G1 X205.369 Y170.817 E4.93893
G1 X204.703 Y170.974 E4.95626
G1 X203.895 Y171.066 E4.97684
G1 X203.649 Y171.079 E4.98308
G1 X202.552 Y171.1 E5.01086
G1 X192.164 Y171.099 E5.27384
G1 X191.565 Y171.088 E5.28901
G1 X190.629 Y171.016 E5.31277
G1 X189.797 Y170.844 E5.33428
G1 X189.132 Y170.634 E5.35193
G1 X188.063 Y170.234 E5.38083
G1 X185.455 Y169.3 E5.45096
G1 X182.863 Y168.453 E5.51999
G1 X180.264 Y167.684 E5.58861
G1 X177.61 Y166.98 E5.65812
G1 X174.971 Y166.359 E5.72675
G1 X172.28 Y165.805 E5.79631
G1 X169.618 Y165.338 E5.86473
G1 X166.903 Y164.938 E5.9342
G1 X164.218 Y164.62 E6.00265
G1 X161.465 Y164.372 E6.07263
G1 X158.776 Y164.208 E6.14083
G1 X156.044 Y164.118 E6.21003
G1 X154.191 Y164.1 E6.25694
G1 X138.359 Y164.1 E6.65774
G1 X135.579 Y164.139 E6.72813
G1 X132.85 Y164.255 E6.79728
G1 X130.121 Y164.449 E6.86654
G1 X127.444 Y164.714 E6.93464
G1 X124.705 Y165.064 E7.00454
G1 X122.027 Y165.485 E7.07317
G1 X119.341 Y165.985 E7.14234
G1 X116.714 Y166.55 E7.21036
G1 X114.039 Y167.205 E7.28008
G1 X111.396 Y167.932 E7.34948
G1 X108.804 Y168.726 E7.41811
G1 X106.185 Y169.61 E7.48808
G1 X104.36 Y170.275 E7.53726
G1 X103.295 Y170.676 E7.56607
G1 X102.568 Y170.899 E7.58532
G1 X102.029 Y171.006 E7.59923
G1 X101.511 Y171.067 E7.61243
G1 X101.309 Y171.076 E7.61755
G1 X100.051 Y171.1 E7.64941
G1 X87.145 Y171.1 E7.97613
G1 X86.631 Y171.09 E7.98915
G1 X85.872 Y171.051 E8.00839
G1 X85.223 Y170.962 E8.02497
G1 X84.681 Y170.833 E8.03908
G1 X84.152 Y170.655 E8.05321
G1 X83.586 Y170.408 E8.06884
G1 X83.086 Y170.135 E8.08326
G1 X82.665 Y169.857 E8.09603
G1 X82.171 Y169.463 E8.11203
G1 X81.785 Y169.102 E8.12541
G1 X81.354 Y168.612 E8.14193
G1 X81.02 Y168.155 E8.15626
G1 X80.723 Y167.668 E8.1707
G1 X80.485 Y167.187 E8.18429
G1 X80.261 Y166.612 E8.19991
G1 X80.083 Y165.981 E8.21651
G1 X79.971 Y165.316 E8.23358
G1 X79.921 Y164.651 E8.25046
G1 X79.9 Y163.55 E8.27834
G1 X79.9 Y111.145 E9.60502
G1 X79.91 Y110.633 E9.61798
G1 X79.949 Y109.873 E9.63725
G1 X80.033 Y109.247 E9.65324
G1 X80.166 Y108.682 E9.66793
G1 X80.345 Y108.151 E9.68212
G1 X80.591 Y107.588 E9.69767
G1 X80.856 Y107.101 E9.71171
G1 X81.143 Y106.665 E9.72492
G1 X81.532 Y106.176 E9.74074
G1 X81.924 Y105.759 E9.75523
G1 X82.361 Y105.375 E9.76996
G0 F2625 X82.62 Y105.68
G1 F900 X83.073 Y105.349 E9.78416
G1 X83.503 Y105.086 E9.79692
G1 X83.983 Y104.847 E9.8105
G1 X84.508 Y104.642 E9.82476
G1 X85.093 Y104.476 E9.84016
G1 X85.721 Y104.369 E9.85629
G1 X86.359 Y104.321 E9.87248
G1 X87.45 Y104.3 E9.90011
G1 X105.335 Y104.3 E10.35288
G1 X105.902 Y104.31 E10.36724
G1 X106.554 Y104.341 E10.38376
G1 X107.16 Y104.423 E10.39924
G1 X108.809 Y104.773 E10.44192
G1 X111.229 Y105.259 E10.50441
G1 X113.961 Y105.729 E10.57459
G1 X116.684 Y106.118 E10.64422
G1 X119.382 Y106.427 E10.71297
G1 X122.096 Y106.66 E10.78193
G1 X124.843 Y106.817 E10.85159
G1 X127.595 Y106.897 E10.92128
G1 X130.312 Y106.899 E10.99007
G1 X133.064 Y106.823 E11.05976
G1 X135.778 Y106.671 E11.12858
G1 X138.523 Y106.439 E11.19832
G1 X141.257 Y106.131 E11.26797
G1 X143.948 Y105.75 E11.33677
G1 X146.638 Y105.29 E11.40586
G1 X149.342 Y104.75 E11.47567
G1 X150.578 Y104.474 E11.50773
G1 X151.386 Y104.342 E11.52846
G1 X151.699 Y104.324 E11.53639
G1 X152.95 Y104.3 E11.56807
G1 X202.849 Y104.3 E12.83131
G1 X203.348 Y104.309 E12.84394
G1 X204.107 Y104.348 E12.86318
G1 X204.692 Y104.429 E12.87813
G1 X205.205 Y104.55 E12.89148
G1 X205.71 Y104.72 E12.90496
G1 X206.209 Y104.937 E12.91874
G1 X206.771 Y105.247 E12.93499
G1 X207.343 Y105.649 E12.95269
G1 X207.728 Y105.983 E12.96559
G1 X208.125 Y106.39 E12.97998
G1 X208.469 Y106.811 E12.99375
G1 X208.784 Y107.279 E13.00803
G1 X209.049 Y107.763 E13.022
G1 X209.297 Y108.332 E13.03771
G1 X209.504 Y109.001 E13.05544
G1 X209.613 Y109.541 E13.06939
G1 X209.672 Y110.09 E13.08337
G1 X209.68 Y110.277 E13.0881
G1 X209.7 Y111.403 E13.11661
G1 X209.699 Y112.712 E13.14975
G1 X209.689 Y113.332 E13.16545
G1 X209.643 Y114.066 E13.18407
G1 X209.489 Y114.912 E13.20584
G1 X208.925 Y117.422 E13.27097
G1 X208.412 Y120.04 E13.3385
G1 X207.952 Y122.803 E13.40941
G1 X207.582 Y125.501 E13.47835
G1 X207.288 Y128.203 E13.54716
G1 X207.068 Y130.948 E13.61688
G1 X206.926 Y133.696 E13.68654
G1 X206.862 Y136.415 E13.75539
G1 X206.876 Y139.167 E13.82506
G1 X206.966 Y141.883 E13.89386
G1 X207.136 Y144.636 E13.96368
G1 X207.378 Y147.337 E14.03234
G1 X207.703 Y150.073 E14.10209
G1 X208.105 Y152.801 E14.17189
G1 X208.572 Y155.445 E14.23987
G1 X209.259 Y158.738 E14.32503
G1 X209.54 Y159.979 E14.35724
G1 X209.658 Y160.725 E14.37636
G1 X209.684 Y161.167 E14.38757
G1 X209.7 Y162.116 E14.4116
G1 X209.7 Y163.849 E14.45547
G1 X209.691 Y164.348 E14.4681
G1 X209.652 Y165.107 E14.48734
G1 X209.571 Y165.693 E14.50232
G1 X209.441 Y166.238 E14.5165
G1 X209.175 Y166.97 E14.53622
G1 X208.939 Y167.452 E14.54981
G1 X208.67 Y167.899 E14.56301
G1 X208.351 Y168.343 E14.57685
G1 X208.008 Y168.738 E14.5901
G1 X207.605 Y169.129 E14.60431
G1 X207.184 Y169.472 E14.61806
G1 X206.724 Y169.781 E14.63209
G1 X206.11 Y170.109 E14.64971
G1 X205.509 Y170.352 E14.66612
G1 X204.895 Y170.527 E14.68229
G1 X204.28 Y170.631 E14.69808
G1 X203.641 Y170.679 E14.7143
G1 X202.552 Y170.7 E14.74187
G1 X192.17 Y170.699 E15.0047
G1 X191.584 Y170.688 E15.01954
G1 X190.697 Y170.622 E15.04206
G1 X189.913 Y170.461 E15.06232
G1 X189.272 Y170.259 E15.07933
G1 X188.19 Y169.854 E15.10858
G1 X185.609 Y168.93 E15.17798
G1 X182.995 Y168.075 E15.24761
G1 X180.342 Y167.29 E15.31765
G1 X177.724 Y166.597 E15.38621
G1 X175.038 Y165.964 E15.45607
G1 X172.364 Y165.414 E15.52518
G1 X169.674 Y164.941 E15.59433
G1 X166.971 Y164.543 E15.66349
G1 X164.23 Y164.218 E15.73337
G1 X161.527 Y163.976 E15.80207
G1 X158.777 Y163.807 E15.87182
G1 X156.061 Y163.718 E15.94062
G1 X154.194 Y163.7 E15.98788
G1 X138.353 Y163.7 E16.38891
G1 X135.556 Y163.74 E16.45973
G1 X132.839 Y163.855 E16.52857
G1 X130.093 Y164.05 E16.59827
G1 X127.387 Y164.318 E16.66711
G1 X124.664 Y164.666 E16.7366
G1 X121.963 Y165.091 E16.80582
G1 X119.255 Y165.594 E16.87555
G1 X116.598 Y166.166 E16.94435
G1 X113.951 Y166.814 E17.01334
G1 X111.311 Y167.541 E17.08267
G1 X108.664 Y168.351 E17.15274
G1 X106.084 Y169.222 E17.22168
G1 X104.219 Y169.901 E17.27193
G1 X103.154 Y170.302 E17.30074
G1 X102.48 Y170.509 E17.31859
G1 X101.956 Y170.613 E17.33211
G1 X101.301 Y170.676 E17.34877
G1 X100.051 Y170.7 E17.38042
G1 X87.151 Y170.7 E17.70699
G1 X86.652 Y170.691 E17.71963
G1 X85.893 Y170.652 E17.73887
G1 X85.308 Y170.571 E17.75382
G1 X84.795 Y170.45 E17.76716
G1 X84.285 Y170.278 E17.78079
G1 X83.769 Y170.052 E17.79505
G1 X83.298 Y169.797 E17.80861
G1 X82.657 Y169.351 E17.82838
G1 X82.222 Y168.969 E17.84303
G1 X81.864 Y168.598 E17.85609
G1 X81.497 Y168.144 E17.87087
G1 X81.077 Y167.482 E17.89071
G1 X80.846 Y167.016 E17.90388
G1 X80.643 Y166.492 E17.91811
G1 X80.475 Y165.902 E17.93364
G1 X80.369 Y165.281 E17.94958
G1 X80.321 Y164.643 E17.96578
G1 X80.3 Y163.55 E17.99346
G1 X80.3 Y111.15 E19.32001
G1 X80.309 Y110.653 E19.33259
G1 X80.348 Y109.893 E19.35186
G1 X80.424 Y109.33 E19.36624
G1 X80.549 Y108.799 E19.38005
G1 X80.722 Y108.284 E19.3938
G1 X80.947 Y107.771 E19.40799
G1 X81.195 Y107.312 E19.42119
G1 X81.474 Y106.89 E19.434
G1 X81.829 Y106.444 E19.44843
G1 X82.199 Y106.049 E19.46213
G1 X82.62 Y105.68 E19.4763
G1 F600 E17.7263
;MESH:Display_Mount.stl
G0 F2625 X82.867 Y110.01
G0 X84.12 Y110.533
G0 X93.471 Y148.078
G0 X93.926 Y149.328
G0 X94.592 Y150.482
G0 X102.6 Y159.1
;TYPE:WALL-INNER
G1 F600 E19.4763
G1 F900 X102.6 Y164.403 E19.61056
G1 X102.534 Y164.919 E19.62372
G1 X102.379 Y165.291 E19.63393
G1 X102.124 Y165.624 E19.64454
G1 X101.791 Y165.879 E19.65516
G1 X101.42 Y166.034 E19.66534
G1 X100.903 Y166.1 E19.67854
G1 X89.132 Y166.1 E19.97653
G1 X89.311 Y165.919 E19.98297
G1 X89.604 Y165.503 E19.99586
G1 X89.824 Y165.03 E20.00906
G1 X89.962 Y164.52 E20.02244
G1 X90.004 Y164 E20.03564
G1 X89.962 Y163.48 E20.04885
G1 X89.824 Y162.971 E20.0622
G1 X89.601 Y162.493 E20.07556
G1 X89.289 Y162.054 E20.08919
G1 X88.919 Y161.689 E20.10235
G1 X88.503 Y161.396 E20.11523
G1 X88.03 Y161.176 E20.12844
G1 X87.52 Y161.038 E20.14181
G1 X87 Y160.996 E20.15502
G1 X86.48 Y161.038 E20.16822
G1 X85.971 Y161.176 E20.18158
G1 X85.493 Y161.399 E20.19493
G1 X85.054 Y161.711 E20.20856
G1 X84.9 Y161.867 E20.21411
G1 X84.9 Y113.132 E21.44788
G1 X85.081 Y113.311 E21.45433
G1 X85.497 Y113.604 E21.46721
G1 X85.97 Y113.824 E21.48041
G1 X86.48 Y113.962 E21.49379
G1 X87 Y114.004 E21.507
G1 X87.52 Y113.962 E21.5202
G1 X88.029 Y113.824 E21.53355
G1 X88.507 Y113.601 E21.54691
G1 X88.946 Y113.289 E21.56054
G1 X89.311 Y112.919 E21.5737
G1 X89.604 Y112.503 E21.58658
G1 X89.824 Y112.03 E21.59979
G1 X89.962 Y111.52 E21.61316
G1 X90.004 Y111 E21.62637
G1 X89.962 Y110.48 E21.63958
G1 X89.824 Y109.971 E21.65293
G1 X89.601 Y109.493 E21.66628
G1 X89.289 Y109.054 E21.67992
G1 X89.133 Y108.9 E21.68547
G1 X105.903 Y108.9 E22.11001
G1 X106.42 Y108.966 E22.12321
G1 X106.791 Y109.121 E22.13339
G1 X107.123 Y109.376 E22.14398
G1 X107.378 Y109.708 E22.15458
G1 X107.534 Y110.081 E22.16482
G1 X107.6 Y110.597 E22.17799
G1 X107.6 Y111.546 E22.20201
G1 X107.636 Y112.074 E22.21541
G1 X107.747 Y112.638 E22.22996
G1 X107.933 Y113.185 E22.24459
G1 X108.187 Y113.702 E22.25917
G1 X108.507 Y114.181 E22.27375
G1 X108.888 Y114.612 E22.28832
G1 X109.319 Y114.993 E22.30288
G1 X109.798 Y115.313 E22.31746
G1 X110.315 Y115.567 E22.33205
G1 X110.862 Y115.753 E22.34667
G1 X111.426 Y115.864 E22.36122
G1 X111.954 Y115.9 E22.37462
G1 X146.046 Y115.9 E23.23769
G1 X146.574 Y115.864 E23.25109
G1 X147.138 Y115.753 E23.26564
G1 X147.685 Y115.567 E23.28027
G1 X148.202 Y115.313 E23.29485
G1 X148.681 Y114.993 E23.30943
G1 X149.112 Y114.612 E23.324
G1 X149.493 Y114.181 E23.33856
G1 X149.813 Y113.702 E23.35314
G1 X150.067 Y113.185 E23.36773
G1 X150.253 Y112.638 E23.38235
G1 X150.364 Y112.074 E23.3969
G1 X150.4 Y111.546 E23.4103
G1 X150.4 Y110.597 E23.43433
G1 X150.466 Y110.081 E23.4475
G1 X150.622 Y109.708 E23.45773
G1 X150.877 Y109.376 E23.46833
G1 X151.209 Y109.121 E23.47893
G1 X151.58 Y108.966 E23.48911
G1 X152.097 Y108.9 E23.5023
G1 X200.868 Y108.9 E24.73698
G1 X200.689 Y109.081 E24.74343
G1 X200.396 Y109.497 E24.75631
G1 X200.176 Y109.971 E24.76954
G1 X200.04 Y110.478 E24.78283
G1 X199.993 Y111.005 E24.79622
G1 X200.044 Y111.537 E24.80975
G1 X200.176 Y112.027 E24.8226
G1 X200.399 Y112.507 E24.836
G1 X200.711 Y112.946 E24.84963
G1 X201.081 Y113.311 E24.86279
G1 X201.497 Y113.604 E24.87567
G1 X201.97 Y113.824 E24.88888
G1 X202.48 Y113.962 E24.90225
G1 X203 Y114.004 E24.91546
G1 X203.52 Y113.962 E24.92866
G1 X204.029 Y113.824 E24.94202
G1 X204.507 Y113.601 E24.95537
G1 X204.946 Y113.289 E24.969
G1 X205.099 Y113.134 E24.97452
G1 X205.099 Y113.246
G1 X205.033 Y113.766 E24.98779
G1 X204.763 Y114.292 E25.00275
G1 X204.472 Y114.583 E25.01317
G1 X204.109 Y114.795 E25.02382
G1 X203.672 Y114.911 E25.03526
G1 X203.433 Y114.926 E25.04132
G1 X199.469 Y114.926 E25.14168
G1 X198.767 Y114.957 E25.15947
G1 X198.04 Y115.054 E25.17803
G1 X197.324 Y115.211 E25.19659
G1 X196.627 Y115.433 E25.21511
G1 X195.95 Y115.712 E25.23365
G1 X195.3 Y116.05 E25.25219
G1 X194.682 Y116.444 E25.27075
G1 X194.097 Y116.89 E25.28937
G1 X193.559 Y117.387 E25.30791
G1 X193.065 Y117.925 E25.3264
G1 X192.618 Y118.506 E25.34496
G1 X192.224 Y119.126 E25.36356
G1 X191.886 Y119.776 E25.3821
G1 X191.606 Y120.453 E25.40065
G1 X191.385 Y121.151 E25.41919
G1 X191.227 Y121.867 E25.43775
G1 X191.131 Y122.594 E25.45631
G1 X191.1 Y123.295 E25.47408
G1 X191.1 Y151.357 E26.18449
