;FLAVOR:Marlin
;TIME:5797
;Filament used: 1.94099m
;Layer height: 0.18
;MINX:95.409
;MINY:91.084
;MINZ:0.425
;MAXX:194.598
;MAXY:183.932
;MAXZ:7.085
;Generated with Cura_SteamEngine 4.13.8
M82 ;absolute extrusion mode
;This G-Code has been generated specifically for the LulzBot TAZ 5 | Single Extruder

;SETTINGS
;Nozzle diameter = 0.4mm
;Filament name = Polymaker PolyLite PLA
;Filament type = PLA (Easy Printing) 2.85
;Filament weight = ~14.49g
;Extruder temp = M109 S205
;Bed temp = M190 S65

M73 P0                                      ; clear GLCD progress bar
M75			                                ; start GLCD timer
M140 S65    ; start bed heating up
G90                                         ; absolute positioning
M107                                        ; disable fans
M82                                         ; set extruder to absolute mode
G28 X0 Y0                                   ; home X and Y
G28 Z0                                      ; home Z
G1 Z15.0 F175                    ; move extruder up
M117 Heating...                             ; progress indicator message on LCD
M109 R205  ; wait for extruder to reach printing temp
M190 R65    ; wait for bed to reach printing temp
G92 E0                                      ; set extruder position to 0
G1 F200 E0                                  ; prime the nozzle with filament
G92 E0                                      ; re-set extruder position to 0
G1 F175                          ; set travel speed
M203 X192 Y208 Z3                           ; set limits on travel speed
M117 TAZ 5 Printing...                      ; progress indicator message on LCD
;Start G-Code End

G92 E0
G92 E0
G1 F600 E-1.75
;LAYER_COUNT:38
;LAYER:0
M106 S255
G0 F2625 X120.099 Y94.758 Z0.425
;TYPE:SKIRT
G1 F600 E0
G1 F900 X120.439 Y94.348 E0.01348
G1 X120.654 Y94.11 E0.0216
G1 X121.032 Y93.729 E0.03519
G1 X121.283 Y93.499 E0.04381
G1 X121.739 Y93.119 E0.05884
G1 X122.348 Y92.68 E0.07784
G1 X122.687 Y92.466 E0.08799
G1 X123.188 Y92.183 E0.10256
G1 X123.489 Y92.031 E0.11109
G1 X123.954 Y91.823 E0.12399
G1 X124.252 Y91.705 E0.1321
G1 X124.792 Y91.519 E0.14656
G1 X125.539 Y91.318 E0.16615
G1 X125.951 Y91.235 E0.17679
G1 X126.528 Y91.149 E0.19155
G1 X126.862 Y91.115 E0.20005
G1 X127.372 Y91.087 E0.21298
G1 X127.698 Y91.084 E0.22124
G1 X128.284 Y91.105 E0.23608
G1 X129.065 Y91.189 E0.25597
G1 X129.91 Y91.355 E0.27777
G1 X130.317 Y91.464 E0.28844
G1 X130.819 Y91.624 E0.30177
G1 X131.14 Y91.743 E0.31044
G1 X131.674 Y91.971 E0.32514
G1 X132.343 Y92.313 E0.34416
G1 X132.636 Y92.481 E0.35271
G1 X135.016 Y93.897 E0.42282
G1 X137.404 Y95.229 E0.49204
G1 X139.817 Y96.486 E0.56092
G1 X142.263 Y97.674 E0.62976
G1 X144.76 Y98.801 E0.69912
G1 X147.301 Y99.863 E0.76884
G1 X150.277 Y100.981 E0.84932
G1 X150.712 Y101.148 E0.86111
G1 X152.203 Y101.736 E0.90169
G1 X152.321 Y101.785 E0.90492
G1 X153.774 Y102.42 E0.94507
G1 X154.218 Y102.615 E0.95734
G1 X155.268 Y103.101 E0.98663
G1 X157.759 Y104.168 E1.05524
G1 X160.257 Y105.157 E1.12325
G1 X162.86 Y106.101 E1.19335
G1 X165.426 Y106.952 E1.26179
G1 X168.047 Y107.74 E1.33108
G1 X170.682 Y108.451 E1.40017
G1 X173.36 Y109.094 E1.46989
G1 X176.015 Y109.649 E1.53856
G1 X178.793 Y110.138 E1.60997
G1 X179.566 Y110.282 E1.62987
G1 X180.091 Y110.413 E1.64357
G1 X180.644 Y110.594 E1.6583
G1 X181.16 Y110.807 E1.67243
G1 X181.683 Y111.074 E1.6873
G1 X182.204 Y111.389 E1.70271
G1 X182.84 Y111.862 E1.72278
G1 X183.245 Y112.223 E1.73651
G1 X183.823 Y112.841 E1.75793
G1 X184.176 Y113.303 E1.77265
G1 X184.526 Y113.835 E1.78878
G1 X184.863 Y114.471 E1.807
G1 X185.117 Y115.078 E1.82365
G1 X185.39 Y115.819 E1.84365
G1 X185.845 Y117.12 E1.87854
G1 X186.833 Y119.706 E1.94862
G1 X187.859 Y122.178 E2.01638
G1 X188.996 Y124.713 E2.08671
G1 X190.172 Y127.15 E2.15522
G1 X191.424 Y129.564 E2.22406
G1 X193.174 Y132.689 E2.31473
G1 X193.489 Y133.257 E2.33117
G1 X193.854 Y134.033 E2.35288
G1 X194.143 Y134.829 E2.37432
G1 X194.353 Y135.611 E2.39482
G1 X194.504 Y136.462 E2.4167
G1 X194.575 Y137.254 E2.43683
G1 X194.58 Y137.356 E2.43942
G1 X194.598 Y137.971 E2.45499
G1 X194.598 Y141.108 E2.53441
G1 X194.586 Y141.928 E2.55517
G1 X194.559 Y142.442 E2.5682
G1 X194.494 Y143.031 E2.5832
G1 X194.356 Y143.784 E2.60258
G1 X194.236 Y144.271 E2.61528
G1 X194.05 Y144.866 E2.63106
G1 X193.827 Y145.441 E2.64667
G1 X193.488 Y146.161 E2.66682
G1 X193.055 Y146.93 E2.68916
G1 X192.185 Y148.38 E2.73197
G1 X190.822 Y150.798 E2.80224
G1 X189.577 Y153.163 E2.8699
G1 X188.359 Y155.646 E2.93992
G1 X187.242 Y158.095 E3.00806
G1 X186.173 Y160.623 E3.07754
G1 X185.398 Y162.632 E3.13206
G1 X185.04 Y163.53 E3.15653
G1 X184.757 Y164.157 E3.17395
G1 X184.499 Y164.62 E3.18736
G1 X184.211 Y165.062 E3.20072
G1 X183.839 Y165.551 E3.21627
G1 X183.461 Y165.974 E3.23064
G1 X183.026 Y166.39 E3.24587
G1 X182.623 Y166.723 E3.25911
G1 X182.048 Y167.123 E3.27684
G1 X181.435 Y167.471 E3.29468
G1 X180.944 Y167.699 E3.30839
G1 X180.346 Y167.923 E3.32456
G1 X179.825 Y168.071 E3.33827
G1 X179.644 Y168.115 E3.34298
G1 X178.738 Y168.308 E3.36643
G1 X177.68 Y168.517 E3.39374
G1 X175.055 Y169.114 E3.46189
G1 X172.42 Y169.793 E3.53077
G1 X169.766 Y170.556 E3.60068
G1 X167.202 Y171.372 E3.6688
G1 X164.618 Y172.277 E3.73811
G1 X162.108 Y173.236 E3.80614
G1 X159.521 Y174.308 E3.87703
G1 X157.06 Y175.413 E3.94532
G1 X154.961 Y176.421 E4.00427
G1 X153.433 Y177.144 E4.04706
G1 X153.312 Y177.198 E4.05042
G1 X152.116 Y177.711 E4.08336
G1 X151.999 Y177.759 E4.08657
G1 X150.689 Y178.267 E4.12214
G1 X150.563 Y178.314 E4.12554
G1 X149.275 Y178.759 E4.16004
G1 X149.15 Y178.799 E4.16336
G1 X147.866 Y179.191 E4.19735
G1 X147.742 Y179.227 E4.20062
G1 X146.425 Y179.578 E4.23512
G1 X146.301 Y179.608 E4.23835
G1 X144.955 Y179.916 E4.27331
G1 X144.823 Y179.944 E4.27672
G1 X143.511 Y180.193 E4.31053
G1 X143.383 Y180.215 E4.31382
G1 X142.033 Y180.421 E4.34839
G1 X141.904 Y180.438 E4.35168
G1 X140.54 Y180.596 E4.38645
G1 X140.411 Y180.609 E4.38973
G1 X139.089 Y180.714 E4.4233
G1 X138.587 Y180.738 E4.43602
G1 X135.873 Y180.893 E4.50484
G1 X133.146 Y181.126 E4.57413
G1 X130.442 Y181.434 E4.64303
G1 X127.729 Y181.821 E4.71241
G1 X125.046 Y182.281 E4.78132
G1 X122.366 Y182.821 E4.85053
G1 X119.764 Y183.419 E4.91812
G1 X119.367 Y183.519 E4.92848
G1 X118.348 Y183.752 E4.95495
G1 X117.573 Y183.873 E4.9748
G1 X117.176 Y183.909 E4.9849
G1 X116.621 Y183.932 E4.99896
G1 X116.292 Y183.931 E5.00729
G1 X115.772 Y183.905 E5.02047
G1 X114.939 Y183.805 E5.04171
G1 X114.543 Y183.732 E5.0519
G1 X114.027 Y183.609 E5.06533
G1 X113.711 Y183.518 E5.07365
G1 X113.139 Y183.325 E5.08894
G1 X112.461 Y183.041 E5.10755
G1 X112.071 Y182.849 E5.11855
G1 X111.608 Y182.591 E5.13197
G1 X111.335 Y182.423 E5.14008
G1 X110.869 Y182.106 E5.15435
G1 X110.599 Y181.902 E5.16292
G1 X110.187 Y181.561 E5.17646
G1 X109.946 Y181.343 E5.18469
G1 X109.531 Y180.931 E5.19949
G1 X108.991 Y180.308 E5.22036
G1 X108.802 Y180.061 E5.22824
G1 X108.471 Y179.586 E5.24289
G1 X108.286 Y179.291 E5.25171
G1 X108.009 Y178.798 E5.26602
G1 X107.675 Y178.09 E5.28584
G1 X107.376 Y177.291 E5.30744
G1 X107.327 Y177.137 E5.31153
G1 X106.473 Y174.269 E5.38729
G1 X105.602 Y171.615 E5.458
G1 X104.696 Y169.103 E5.5256
G1 X103.695 Y166.55 E5.59503
G1 X102.629 Y164.043 E5.66399
G1 X101.498 Y161.581 E5.73258
G1 X99.855 Y158.292 E5.82566
G1 X99.722 Y158.032 E5.83305
G1 X99.14 Y156.812 E5.86727
G1 X99.088 Y156.698 E5.87044
G1 X98.542 Y155.443 E5.90509
G1 X98.491 Y155.321 E5.90844
G1 X98.001 Y154.071 E5.94243
G1 X97.956 Y153.95 E5.94569
G1 X97.514 Y152.691 E5.97947
G1 X97.473 Y152.566 E5.9828
G1 X97.068 Y151.262 E6.01737
G1 X97.032 Y151.138 E6.02064
G1 X96.671 Y149.81 E6.05548
G1 X96.639 Y149.682 E6.05882
G1 X96.336 Y148.38 E6.09266
G1 X96.309 Y148.255 E6.0959
G1 X96.05 Y146.931 E6.13005
G1 X96.027 Y146.804 E6.13332
G1 X95.812 Y145.449 E6.16805
G1 X95.794 Y145.317 E6.17143
G1 X95.634 Y143.994 E6.20516
G1 X95.621 Y143.866 E6.20842
G1 X95.504 Y142.485 E6.24351
G1 X95.495 Y142.356 E6.24678
G1 X95.43 Y141.024 E6.28054
G1 X95.426 Y140.894 E6.28383
G1 X95.409 Y139.536 E6.31821
G1 X95.41 Y139.404 E6.32156
G1 X95.443 Y138.04 E6.3561
G1 X95.448 Y137.911 E6.35937
G1 X95.527 Y136.597 E6.39269
G1 X95.538 Y136.467 E6.39599
G1 X95.674 Y135.06 E6.43178
G1 X95.688 Y134.934 E6.43499
G1 X95.858 Y133.648 E6.46783
G1 X95.878 Y133.514 E6.47126
G1 X96.112 Y132.143 E6.50647
G1 X96.411 Y130.69 E6.54402
G1 X96.44 Y130.561 E6.54737
G1 X96.757 Y129.27 E6.58102
G1 X96.79 Y129.145 E6.5843
G1 X97.166 Y127.82 E6.61916
G1 X97.204 Y127.693 E6.62252
G1 X97.612 Y126.434 E6.65602
G1 X97.654 Y126.313 E6.65927
G1 X98.121 Y125.03 E6.69383
G1 X98.167 Y124.91 E6.69709
G1 X98.689 Y123.621 E6.73229
G1 X98.742 Y123.497 E6.73571
G1 X99.279 Y122.301 E6.7689
G1 X99.332 Y122.189 E6.77203
G1 X99.936 Y120.959 E6.80672
G1 X99.995 Y120.843 E6.81002
G1 X100.625 Y119.67 E6.84373
G1 X100.691 Y119.553 E6.84713
G1 X101.408 Y118.329 E6.88304
G1 X101.474 Y118.22 E6.88626
G1 X102.172 Y117.12 E6.91924
G1 X102.245 Y117.01 E6.92259
G1 X102.997 Y115.916 E6.95619
G1 X103.073 Y115.809 E6.95952
G1 X103.949 Y114.629 E6.99672
G1 X104.03 Y114.525 E7.00006
G1 X104.849 Y113.502 E7.03323
G1 X104.932 Y113.402 E7.03652
G1 X105.784 Y112.413 E7.06957
G1 X105.868 Y112.318 E7.07278
G1 X106.795 Y111.316 E7.10734
G1 X108.85 Y109.191 E7.18217
G1 X110.69 Y107.176 E7.25125
G1 X112.487 Y105.093 E7.3209
G1 X114.216 Y102.971 E7.39019
G1 X115.862 Y100.827 E7.45862
G1 X117.46 Y98.624 E7.52752
G1 X119.004 Y96.359 E7.59692
G1 X119.381 Y95.78 E7.61441
G1 X119.898 Y95.024 E7.63759
G1 X120.099 Y94.758 E7.64603
G0 F2625 X120.407 Y95.013
G1 F900 X120.747 Y94.603 E7.65952
G1 X120.938 Y94.392 E7.66672
G1 X121.316 Y94.011 E7.68031
G1 X121.539 Y93.807 E7.68796
G1 X121.995 Y93.427 E7.70299
G1 X122.576 Y93.009 E7.72111
G1 X122.884 Y92.814 E7.73034
G1 X123.385 Y92.531 E7.7449
G1 X123.652 Y92.396 E7.75248
G1 X124.117 Y92.188 E7.76537
G1 X124.382 Y92.083 E7.77259
G1 X124.922 Y91.897 E7.78705
G1 X125.634 Y91.706 E7.80571
G1 X126.01 Y91.631 E7.81542
G1 X126.587 Y91.545 E7.83019
G1 X126.884 Y91.515 E7.83774
G1 X127.394 Y91.487 E7.85067
G1 X127.684 Y91.484 E7.85801
G1 X128.27 Y91.505 E7.87286
G1 X129.015 Y91.586 E7.89183
G1 X129.824 Y91.746 E7.91271
G1 X130.196 Y91.845 E7.92245
G1 X130.698 Y92.005 E7.93579
G1 X130.983 Y92.111 E7.94349
G1 X131.517 Y92.339 E7.95819
G1 X132.154 Y92.666 E7.97632
G1 X132.432 Y92.824 E7.98441
G1 X134.838 Y94.256 E8.05529
G1 X137.204 Y95.575 E8.12387
G1 X139.664 Y96.857 E8.1941
G1 X142.089 Y98.035 E8.26235
G1 X144.591 Y99.163 E8.33183
G1 X147.164 Y100.239 E8.40243
G1 X150.133 Y101.354 E8.48272
G1 X150.565 Y101.52 E8.49444
G1 X152.056 Y102.108 E8.53501
G1 X152.161 Y102.152 E8.53789
G1 X153.608 Y102.783 E8.57786
G1 X154.05 Y102.978 E8.59009
G1 X155.079 Y103.455 E8.6188
G1 X157.603 Y104.536 E8.68831
G1 X160.152 Y105.544 E8.7577
G1 X162.734 Y106.482 E8.82725
G1 X165.29 Y107.329 E8.89542
G1 X167.966 Y108.133 E8.96615
G1 X170.556 Y108.832 E9.03407
G1 X173.29 Y109.488 E9.10524
G1 X175.894 Y110.033 E9.1726
G1 X178.72 Y110.531 E9.24524
G1 X179.493 Y110.675 E9.26515
G1 X180.255 Y110.881 E9.28513
G1 X180.751 Y111.067 E9.29854
G1 X181.259 Y111.298 E9.31267
G1 X181.724 Y111.558 E9.32616
G1 X182.176 Y111.858 E9.33989
G1 X182.579 Y112.165 E9.35271
G1 X182.974 Y112.518 E9.36613
G1 X183.522 Y113.104 E9.38644
G1 X183.853 Y113.538 E9.40025
G1 X184.179 Y114.036 E9.41532
G1 X184.499 Y114.637 E9.43256
G1 X184.745 Y115.226 E9.44872
G1 X184.996 Y115.907 E9.46709
G1 X185.472 Y117.265 E9.50352
G1 X186.454 Y119.835 E9.57317
G1 X187.501 Y122.359 E9.64235
G1 X188.629 Y124.872 E9.71208
G1 X189.815 Y127.329 E9.78115
G1 X191.071 Y129.752 E9.85024
G1 X192.891 Y132.999 E9.94448
G1 X193.139 Y133.449 E9.95748
G1 X193.487 Y134.193 E9.97828
G1 X193.763 Y134.956 E9.99882
G1 X193.964 Y135.704 E10.01843
G1 X194.108 Y136.52 E10.0394
G1 X194.176 Y137.278 E10.05867
G1 X194.196 Y137.869 E10.07364
G1 X194.198 Y137.971 E10.07622
G1 X194.198 Y141.102 E10.15549
G1 X194.186 Y141.922 E10.17625
G1 X194.143 Y142.606 E10.1936
G1 X194.068 Y143.177 E10.20818
G1 X193.965 Y143.703 E10.22175
G1 X193.761 Y144.463 E10.24167
G1 X193.456 Y145.293 E10.26405
G1 X193.131 Y145.981 E10.28332
G1 X192.71 Y146.729 E10.30505
G1 X191.839 Y148.178 E10.34785
G1 X190.477 Y150.595 E10.41808
G1 X189.222 Y152.979 E10.48629
G1 X187.993 Y155.483 E10.5569
G1 X186.867 Y157.952 E10.6256
G1 X185.811 Y160.45 E10.69426
G1 X185.026 Y162.484 E10.74945
G1 X184.635 Y163.463 E10.77614
G1 X184.405 Y163.967 E10.79016
G1 X184.152 Y164.421 E10.80332
G1 X183.71 Y165.071 E10.82322
G1 X183.33 Y165.526 E10.83823
G1 X182.861 Y166 E10.85511
G1 X182.386 Y166.4 E10.87083
G1 X181.828 Y166.789 E10.88805
G1 X181.247 Y167.119 E10.90496
G1 X180.498 Y167.446 E10.92565
G1 X179.941 Y167.626 E10.94047
G1 X179.56 Y167.723 E10.95043
G1 X178.66 Y167.915 E10.97372
G1 X177.618 Y168.121 E11.00061
G1 X174.972 Y168.723 E11.06931
G1 X172.281 Y169.416 E11.13966
G1 X169.681 Y170.163 E11.20814
G1 X167.054 Y171 E11.27794
G1 X164.48 Y171.901 E11.34698
G1 X161.947 Y172.868 E11.41562
G1 X159.382 Y173.932 E11.48592
G1 X156.917 Y175.038 E11.55432
G1 X154.79 Y176.06 E11.61406
G1 X153.262 Y176.783 E11.65685
G1 X151.958 Y177.344 E11.69279
G1 X151.854 Y177.387 E11.69564
G1 X150.544 Y177.895 E11.73121
G1 X150.432 Y177.936 E11.73423
G1 X149.144 Y178.381 E11.76873
G1 X149.033 Y178.417 E11.77168
G1 X147.749 Y178.809 E11.80567
G1 X147.639 Y178.84 E11.80856
G1 X146.322 Y179.191 E11.84307
G1 X146.212 Y179.218 E11.84593
G1 X144.866 Y179.526 E11.88089
G1 X144.749 Y179.551 E11.88392
G1 X143.437 Y179.8 E11.91772
G1 X143.323 Y179.819 E11.92065
G1 X141.858 Y180.041 E11.95816
G1 X140.494 Y180.199 E11.99292
G1 X140.379 Y180.21 E11.99585
G1 X139.057 Y180.315 E12.02942
G1 X138.606 Y180.336 E12.04085
G1 X135.817 Y180.495 E12.11157
G1 X133.103 Y180.728 E12.18053
G1 X130.407 Y181.035 E12.24922
G1 X127.676 Y181.425 E12.31906
G1 X124.971 Y181.889 E12.38854
G1 X122.312 Y182.424 E12.45721
G1 X119.645 Y183.037 E12.52648
G1 X119.278 Y183.129 E12.53606
G1 X118.259 Y183.362 E12.56253
G1 X117.521 Y183.476 E12.58143
G1 X117.159 Y183.509 E12.59063
G1 X116.604 Y183.532 E12.6047
G1 X116.312 Y183.531 E12.61209
G1 X115.792 Y183.505 E12.62527
G1 X114.994 Y183.409 E12.64562
G1 X114.636 Y183.343 E12.65483
G1 X114.12 Y183.22 E12.66826
G1 X113.839 Y183.139 E12.67566
G1 X113.267 Y182.946 E12.69095
G1 X112.623 Y182.675 E12.70864
G1 X112.265 Y182.499 E12.71873
G1 X111.802 Y182.241 E12.73215
G1 X111.56 Y182.092 E12.73935
G1 X111.094 Y181.775 E12.75362
G1 X110.854 Y181.594 E12.76123
G1 X110.442 Y181.253 E12.77476
G1 X110.227 Y181.059 E12.7821
G1 X109.812 Y180.647 E12.7969
G1 X109.298 Y180.052 E12.8168
G1 X109.131 Y179.833 E12.82378
G1 X108.8 Y179.358 E12.83843
G1 X108.635 Y179.095 E12.84629
G1 X108.358 Y178.602 E12.86061
G1 X108.039 Y177.925 E12.87956
G1 X107.754 Y177.16 E12.90022
G1 X107.71 Y177.023 E12.90387
G1 X106.844 Y174.113 E12.98073
G1 X105.994 Y171.522 E13.04976
G1 X105.069 Y168.958 E13.11877
G1 X104.059 Y166.385 E13.18874
G1 X103.002 Y163.897 E13.25718
G1 X101.855 Y161.402 E13.32669
G1 X100.21 Y158.106 E13.41995
G1 X100.083 Y157.86 E13.42696
G1 X99.501 Y156.64 E13.46118
G1 X99.455 Y156.539 E13.46399
G1 X98.909 Y155.284 E13.49864
G1 X98.864 Y155.175 E13.50162
G1 X98.374 Y153.925 E13.53561
G1 X98.334 Y153.817 E13.53853
G1 X97.892 Y152.558 E13.57231
G1 X97.855 Y152.447 E13.57527
G1 X97.45 Y151.143 E13.60984
G1 X97.418 Y151.033 E13.61274
G1 X97.057 Y149.705 E13.64758
G1 X97.028 Y149.591 E13.65055
G1 X96.725 Y148.289 E13.6844
G1 X96.443 Y146.854 E13.72142
G1 X96.423 Y146.741 E13.72432
G1 X96.208 Y145.386 E13.75906
G1 X96.191 Y145.269 E13.76205
G1 X96.031 Y143.946 E13.79579
G1 X96.019 Y143.832 E13.79869
G1 X95.902 Y142.451 E13.83377
G1 X95.83 Y141.005 E13.87043
G1 X95.826 Y140.889 E13.87336
G1 X95.809 Y139.531 E13.90775
G1 X95.81 Y139.414 E13.91071
G1 X95.843 Y138.05 E13.94525
G1 X95.848 Y137.935 E13.94816
G1 X95.927 Y136.621 E13.98149
G1 X95.936 Y136.505 E13.98443
G1 X96.072 Y135.098 E14.02022
G1 X96.085 Y134.987 E14.02305
G1 X96.255 Y133.701 E14.05589
G1 X96.273 Y133.582 E14.05894
G1 X96.527 Y132.101 E14.09698
G1 X96.802 Y130.771 E14.13136
