;FLAVOR:Marlin
;TIME:2583
;Filament used: 0.873112m
;Layer height: 0.18
;MINX:121.394
;MINY:113.893
;MINZ:0.425
;MAXX:168.606
;MAXY:161.107
;MAXZ:9.425
;Generated with Cura_SteamEngine 4.13.8
M82 ;absolute extrusion mode
;This G-Code has been generated specifically for the LulzBot TAZ 5 | Single Extruder

;SETTINGS
;Nozzle diameter = 0.4mm
;Filament name = Polymaker PolyLite PLA
;Filament type = PLA (Easy Printing) 2.85
;Filament weight = ~6.52g
;Extruder temp = M109 S205
;Bed temp = M190 S65

M73 P0                                      ; clear GLCD progress bar
M75			                                ; start GLCD timer
M140 S65    ; start bed heating up
G90                                         ; absolute positioning
M107                                        ; disable fans
M82                                         ; set extruder to absolute mode
G28 X0 Y0                                   ; home X and Y
G28 Z0                                      ; home Z
G1 Z15.0 F175                    ; move extruder up
M117 Heating...                             ; progress indicator message on LCD
M109 R205  ; wait for extruder to reach printing temp
M190 R65    ; wait for bed to reach printing temp
G92 E0                                      ; set extruder position to 0
G1 F200 E0                                  ; prime the nozzle with filament
G92 E0                                      ; re-set extruder position to 0
G1 F175                          ; set travel speed
M203 X192 Y208 Z3                           ; set limits on travel speed
M117 TAZ 5 Printing...                      ; progress indicator message on LCD
;Start G-Code End

G92 E0
G92 E0
G1 F600 E-1.75
;LAYER_COUNT:51
;LAYER:0
M106 S255
G0 F2625 X128.012 Y121.106 Z0.425
;TYPE:SKIRT
G1 F600 E0
G1 F900 X128.475 Y120.639 E0.01665
G1 X128.929 Y120.207 E0.03251
G1 X129.023 Y120.121 E0.03574
G1 X129.682 Y119.537 E0.05803
G1 X129.778 Y119.455 E0.06123
G1 X130.174 Y119.128 E0.07423
G1 X130.833 Y118.617 E0.09534
G1 X130.928 Y118.545 E0.09836
G1 X131.488 Y118.141 E0.11584
G1 X132.102 Y117.727 E0.13458
G1 X132.206 Y117.659 E0.13773
G1 X132.849 Y117.259 E0.1569
G1 X133.484 Y116.891 E0.17548
G1 X133.592 Y116.831 E0.17861
G1 X134.25 Y116.481 E0.19748
G1 X134.36 Y116.425 E0.2006
G1 X134.847 Y116.187 E0.21432
G1 X134.958 Y116.135 E0.21743
G1 X135.747 Y115.782 E0.23931
G1 X136.293 Y115.557 E0.25426
G1 X136.402 Y115.514 E0.25723
G1 X137.202 Y115.217 E0.27883
G1 X137.326 Y115.174 E0.28215
G1 X137.984 Y114.958 E0.29968
G1 X138.654 Y114.761 E0.31736
G1 X138.77 Y114.729 E0.32041
G1 X139.421 Y114.561 E0.33743
G1 X140.257 Y114.374 E0.35912
G1 X140.376 Y114.349 E0.3622
G1 X140.879 Y114.255 E0.37515
G1 X140.996 Y114.235 E0.37816
G1 X141.898 Y114.097 E0.40126
G1 X142.45 Y114.03 E0.41533
G1 X142.573 Y114.017 E0.41846
G1 X143.483 Y113.941 E0.44158
G1 X143.606 Y113.933 E0.4447
G1 X144.114 Y113.908 E0.45758
G1 X144.918 Y113.893 E0.47794
G1 X145.045 Y113.893 E0.48115
G1 X145.832 Y113.907 E0.50108
G1 X146.427 Y113.935 E0.51616
G1 X146.554 Y113.943 E0.51938
G1 X147.476 Y114.022 E0.54281
G1 X148.023 Y114.086 E0.55675
G1 X148.142 Y114.102 E0.55979
G1 X149.03 Y114.239 E0.58253
G1 X149.63 Y114.35 E0.59798
G1 X149.752 Y114.375 E0.60113
G1 X150.512 Y114.545 E0.62085
G1 X150.639 Y114.576 E0.62416
G1 X151.355 Y114.765 E0.64291
G1 X152.049 Y114.969 E0.66122
G1 X152.176 Y115.009 E0.66459
G1 X152.744 Y115.199 E0.67975
G1 X152.854 Y115.238 E0.68271
G1 X153.729 Y115.564 E0.70635
G1 X154.27 Y115.788 E0.72117
G1 X155.096 Y116.16 E0.7441
G1 X155.211 Y116.214 E0.74732
G1 X155.771 Y116.492 E0.76315
G1 X156.545 Y116.907 E0.78538
G1 X157.096 Y117.226 E0.8015
G1 X157.197 Y117.287 E0.80448
G1 X157.792 Y117.658 E0.82224
G1 X158.461 Y118.106 E0.84262
G1 X158.559 Y118.174 E0.84564
G1 X159.069 Y118.542 E0.86156
G1 X159.171 Y118.618 E0.86478
G1 X159.781 Y119.092 E0.88434
G1 X159.872 Y119.165 E0.88729
G1 X160.308 Y119.527 E0.90164
G1 X160.4 Y119.606 E0.90471
G1 X160.931 Y120.078 E0.92269
G1 X161.023 Y120.163 E0.92586
G1 X161.576 Y120.69 E0.9452
G1 X161.662 Y120.775 E0.94826
G1 X162.017 Y121.137 E0.9611
G1 X162.662 Y121.837 E0.9852
G1 X162.749 Y121.935 E0.98851
G1 X163.198 Y122.463 E1.00606
G1 X163.7 Y123.091 E1.02641
G1 X164.119 Y123.649 E1.04408
G1 X164.199 Y123.76 E1.04754
G1 X164.572 Y124.298 E1.06412
G1 X164.638 Y124.397 E1.06713
G1 X165.058 Y125.048 E1.08674
G1 X165.123 Y125.153 E1.08987
G1 X165.456 Y125.713 E1.10636
G1 X165.794 Y126.322 E1.12399
G1 X165.854 Y126.435 E1.12723
G1 X166.205 Y127.124 E1.14681
G1 X166.255 Y127.226 E1.14968
G1 X166.5 Y127.747 E1.16426
G1 X166.831 Y128.516 E1.18545
G1 X166.875 Y128.622 E1.18836
G1 X167.105 Y129.21 E1.20434
G1 X167.15 Y129.332 E1.20764
G1 X167.411 Y130.078 E1.22764
G1 X167.449 Y130.192 E1.23069
G1 X167.618 Y130.732 E1.24501
G1 X167.653 Y130.852 E1.24817
G1 X167.848 Y131.561 E1.26679
G1 X167.878 Y131.678 E1.26985
G1 X168.054 Y132.419 E1.28913
G1 X168.202 Y133.136 E1.30766
G1 X168.225 Y133.26 E1.31086
G1 X168.311 Y133.765 E1.32382
G1 X168.33 Y133.888 E1.32698
G1 X168.452 Y134.793 E1.35009
G1 X168.466 Y134.914 E1.35318
G1 X168.527 Y135.539 E1.36907
G1 X168.572 Y136.204 E1.38595
G1 X168.578 Y136.324 E1.38899
G1 X168.604 Y137.086 E1.40829
G1 X168.606 Y137.215 E1.41156
G1 X168.605 Y137.846 E1.42753
G1 X168.603 Y137.963 E1.43049
G1 X168.579 Y138.665 E1.44828
G1 X168.572 Y138.792 E1.4515
G1 X168.512 Y139.64 E1.47302
G1 X168.451 Y140.214 E1.48763
G1 X168.325 Y141.141 E1.51131
G1 X168.305 Y141.269 E1.51459
G1 X168.194 Y141.903 E1.53089
G1 X168.051 Y142.598 E1.54885
G1 X168.024 Y142.718 E1.55197
G1 X167.865 Y143.376 E1.5691
G1 X167.834 Y143.495 E1.57222
G1 X167.61 Y144.295 E1.59325
G1 X167.432 Y144.86 E1.60824
G1 X167.157 Y145.648 E1.62937
G1 X167.115 Y145.764 E1.6325
G1 X166.87 Y146.393 E1.64959
G1 X166.821 Y146.512 E1.65284
G1 X166.526 Y147.196 E1.6717
G1 X166.238 Y147.81 E1.68887
G1 X166.187 Y147.914 E1.6918
G1 X165.868 Y148.538 E1.70954
G1 X165.809 Y148.649 E1.71273
G1 X165.438 Y149.316 E1.73205
G1 X165.377 Y149.421 E1.73512
G1 X165.086 Y149.905 E1.74942
G1 X164.641 Y150.598 E1.77027
G1 X164.567 Y150.709 E1.77365
G1 X164.156 Y151.297 E1.79181
G1 X163.721 Y151.881 E1.81024
G1 X163.646 Y151.978 E1.81335
G1 X163.157 Y152.587 E1.83312
G1 X162.735 Y153.08 E1.84955
G1 X162.657 Y153.168 E1.85253
G1 X162.081 Y153.795 E1.87408
G1 X161.995 Y153.886 E1.87725
G1 X161.612 Y154.275 E1.89107
G1 X161.07 Y154.793 E1.91005
G1 X160.975 Y154.881 E1.91333
G1 X160.329 Y155.453 E1.93517
G1 X160.239 Y155.53 E1.93817
G1 X159.83 Y155.869 E1.95162
G1 X159.734 Y155.946 E1.95473
G1 X159.167 Y156.384 E1.97287
G1 X159.073 Y156.454 E1.97584
G1 X158.512 Y156.859 E1.99336
G1 X158.41 Y156.93 E1.9965
G1 X157.897 Y157.274 E2.01214
G1 X157.794 Y157.341 E2.01525
G1 X157.151 Y157.741 E2.03442
G1 X157.047 Y157.803 E2.03749
G1 X156.523 Y158.105 E2.0528
G1 X156.418 Y158.163 E2.05583
G1 X155.752 Y158.518 E2.07494
G1 X155.64 Y158.575 E2.07812
G1 X155.046 Y158.864 E2.09484
G1 X154.257 Y159.218 E2.11674
G1 X153.704 Y159.445 E2.13187
G1 X152.795 Y159.783 E2.15642
G1 X152.677 Y159.825 E2.15959
G1 X152.13 Y160.006 E2.17418
G1 X151.347 Y160.238 E2.19485
G1 X151.226 Y160.272 E2.19803
G1 X150.576 Y160.439 E2.21502
G1 X150.464 Y160.466 E2.21794
G1 X149.747 Y160.626 E2.23654
G1 X149.624 Y160.651 E2.23972
G1 X149.005 Y160.765 E2.25565
G1 X148.104 Y160.903 E2.27873
G1 X147.547 Y160.97 E2.29293
G1 X147.426 Y160.982 E2.29601
G1 X146.394 Y161.067 E2.32222
G1 X145.885 Y161.092 E2.33512
G1 X145.082 Y161.107 E2.35545
G1 X144.955 Y161.107 E2.35867
G1 X144.054 Y161.09 E2.38148
G1 X143.444 Y161.057 E2.39695
G1 X142.523 Y160.978 E2.42035
G1 X141.977 Y160.914 E2.43427
G1 X141.856 Y160.898 E2.43736
G1 X140.857 Y160.742 E2.46295
G1 X140.253 Y160.626 E2.47852
G1 X139.493 Y160.457 E2.49823
G1 X139.36 Y160.425 E2.5017
G1 X138.643 Y160.235 E2.52047
G1 X137.948 Y160.03 E2.53882
G1 X137.826 Y159.992 E2.54205
G1 X137.257 Y159.802 E2.55724
G1 X137.142 Y159.761 E2.56033
G1 X136.272 Y159.436 E2.58384
G1 X135.729 Y159.212 E2.59871
G1 X134.902 Y158.839 E2.62168
G1 X134.337 Y158.563 E2.6376
G1 X134.229 Y158.508 E2.64067
G1 X133.564 Y158.153 E2.65975
G1 X133.458 Y158.094 E2.66282
G1 X132.906 Y157.775 E2.67896
G1 X132.8 Y157.711 E2.6821
G1 X132.206 Y157.34 E2.69983
G1 X132.103 Y157.273 E2.70294
G1 X131.44 Y156.825 E2.72319
G1 X130.93 Y156.457 E2.73912
G1 X130.828 Y156.381 E2.74234
G1 X130.218 Y155.907 E2.76189
G1 X130.127 Y155.834 E2.76485
G1 X129.691 Y155.472 E2.77919
G1 X129.599 Y155.393 E2.78226
G1 X129.068 Y154.921 E2.80025
G1 X128.426 Y154.312 E2.82265
G1 X128.337 Y154.225 E2.8258
G1 X127.982 Y153.863 E2.83864
G1 X127.337 Y153.163 E2.86273
G1 X127.25 Y153.065 E2.86605
G1 X126.801 Y152.537 E2.8836
G1 X126.37 Y152 E2.90103
G1 X126.292 Y151.899 E2.90426
G1 X125.873 Y151.337 E2.92201
G1 X125.801 Y151.237 E2.92513
G1 X125.361 Y150.6 E2.94472
G1 X124.943 Y149.953 E2.96423
G1 X124.602 Y149.386 E2.98098
G1 X124.544 Y149.286 E2.9839
G1 X124.206 Y148.677 E3.00153
G1 X124.148 Y148.568 E3.00466
G1 X123.796 Y147.879 E3.02425
G1 X123.741 Y147.767 E3.02741
G1 X123.486 Y147.222 E3.04264
G1 X123.436 Y147.11 E3.04574
G1 X123.161 Y146.466 E3.06347
G1 X123.118 Y146.361 E3.06634
G1 X122.892 Y145.782 E3.08208
G1 X122.848 Y145.662 E3.08531
G1 X122.589 Y144.922 E3.10516
G1 X122.55 Y144.804 E3.10831
G1 X122.379 Y144.255 E3.12287
G1 X122.345 Y144.14 E3.1259
G1 X122.152 Y143.439 E3.14431
G1 X122.123 Y143.326 E3.14726
G1 X121.971 Y142.695 E3.16369
G1 X121.945 Y142.577 E3.16675
G1 X121.798 Y141.862 E3.18523
G1 X121.775 Y141.74 E3.18837
G1 X121.67 Y141.112 E3.20449
G1 X121.548 Y140.207 E3.22761
G1 X121.484 Y139.581 E3.24354
G1 X121.474 Y139.467 E3.24644
G1 X121.425 Y138.743 E3.26481
G1 X121.419 Y138.622 E3.26788
G1 X121.396 Y137.943 E3.28508
G1 X121.394 Y137.816 E3.28829
G1 X121.395 Y137.156 E3.305
G1 X121.397 Y137.038 E3.30799
G1 X121.421 Y136.335 E3.3258
G1 X121.428 Y136.208 E3.32902
G1 X121.48 Y135.461 E3.34797
G1 X121.535 Y134.905 E3.36212
G1 X121.549 Y134.785 E3.36517
G1 X121.694 Y133.731 E3.39211
G1 X121.785 Y133.204 E3.40565
G1 X121.949 Y132.401 E3.4264
G1 X121.976 Y132.279 E3.42956
G1 X122.135 Y131.623 E3.44665
G1 X122.356 Y130.823 E3.46766
G1 X122.389 Y130.71 E3.47064
G1 X122.567 Y130.143 E3.48568
G1 X122.606 Y130.027 E3.48878
G1 X122.85 Y129.333 E3.50741
G1 X122.892 Y129.219 E3.51048
G1 X123.135 Y128.596 E3.52741
G1 X123.183 Y128.478 E3.53064
G1 X123.475 Y127.801 E3.5493
G1 X123.766 Y127.18 E3.56666
G1 X123.816 Y127.078 E3.56954
G1 X124.137 Y126.45 E3.58739
G1 X124.199 Y126.334 E3.59072
G1 X124.566 Y125.676 E3.6098
G1 X124.917 Y125.091 E3.62707
G1 X125.371 Y124.386 E3.6483
G1 X125.443 Y124.278 E3.65158
G1 X125.908 Y123.615 E3.67208
G1 X126.285 Y123.109 E3.68806
G1 X126.367 Y123.004 E3.69143
G1 X126.92 Y122.319 E3.71372
G1 X127.265 Y121.918 E3.72711
G1 X127.924 Y121.199 E3.7518
G1 X128.012 Y121.106 E3.75504
G0 F2625 X128.218 Y121.469
G1 F900 X128.68 Y120.999 E3.77172
G1 X128.751 Y120.929 E3.77425
G1 X129.205 Y120.497 E3.79011
G1 X129.289 Y120.42 E3.793
G1 X129.948 Y119.836 E3.81529
G1 X130.032 Y119.764 E3.81809
G1 X130.509 Y119.372 E3.83372
G1 X131.077 Y118.933 E3.8519
G1 X131.722 Y118.466 E3.87205
G1 X131.811 Y118.404 E3.8748
G1 X132.325 Y118.059 E3.89047
G1 X132.418 Y117.999 E3.89327
G1 X133.152 Y117.544 E3.91514
G1 X133.684 Y117.237 E3.93069
G1 X133.78 Y117.184 E3.93346
G1 X134.438 Y116.834 E3.95233
G1 X134.536 Y116.784 E3.95512
G1 X135.023 Y116.546 E3.96884
G1 X135.121 Y116.5 E3.97158
G1 X135.91 Y116.147 E3.99346
G1 X136.444 Y115.927 E4.00808
G1 X136.541 Y115.889 E4.01072
G1 X137.341 Y115.592 E4.03232
G1 X137.451 Y115.553 E4.03528
G1 X137.996 Y115.373 E4.04981
G1 X138.767 Y115.145 E4.07016
G1 X139.521 Y114.949 E4.08988
G1 X139.627 Y114.923 E4.09265
G1 X140.449 Y114.742 E4.11395
G1 X140.952 Y114.648 E4.12691
G1 X141.958 Y114.493 E4.15268
G1 X142.497 Y114.427 E4.16642
G1 X142.607 Y114.416 E4.16922
G1 X143.517 Y114.34 E4.19234
G1 X144.134 Y114.308 E4.20798
G1 X144.235 Y114.304 E4.21054
G1 X144.925 Y114.292 E4.22801
G1 X145.825 Y114.307 E4.2508
G1 X146.407 Y114.334 E4.26555
G1 X146.52 Y114.342 E4.26842
G1 X147.442 Y114.421 E4.29184
G1 X147.975 Y114.483 E4.30543
G1 X148.081 Y114.497 E4.30813
G1 X148.969 Y114.634 E4.33088
G1 X149.556 Y114.743 E4.346
G1 X149.665 Y114.765 E4.34881
G1 X150.425 Y114.935 E4.36853
G1 X151.152 Y115.124 E4.38754
G1 X151.936 Y115.353 E4.40822
G1 X152.049 Y115.388 E4.41121
G1 X152.617 Y115.578 E4.42638
G1 X153.483 Y115.898 E4.44975
G1 X154 Y116.107 E4.46387
G1 X154.106 Y116.152 E4.46678
G1 X154.932 Y116.524 E4.48972
G1 X155.034 Y116.572 E4.49257
G1 X155.492 Y116.798 E4.5055
G1 X156.248 Y117.2 E4.52717
G1 X156.895 Y117.573 E4.54608
G1 X156.985 Y117.627 E4.54874
G1 X157.58 Y117.998 E4.56649
G1 X157.673 Y118.058 E4.56929
G1 X158.238 Y118.438 E4.58653
G1 X158.324 Y118.498 E4.58918
G1 X158.834 Y118.866 E4.6051
G1 X158.925 Y118.934 E4.60798
G1 X159.535 Y119.408 E4.62754
G1 X159.616 Y119.473 E4.63017
G1 X160.134 Y119.905 E4.64724
G1 X160.747 Y120.452 E4.66804
G1 X161.3 Y120.979 E4.68738
G1 X161.377 Y121.055 E4.69012
G1 X161.732 Y121.417 E4.70295
G1 X161.804 Y121.493 E4.7056
G1 X162.368 Y122.107 E4.72671
G1 X162.445 Y122.194 E4.72965
G1 X162.886 Y122.713 E4.74689
G1 X163.317 Y123.25 E4.76433
G1 X163.799 Y123.89 E4.78461
G1 X163.87 Y123.988 E4.78767
G1 X164.243 Y124.526 E4.80425
G1 X164.302 Y124.614 E4.80693
G1 X164.722 Y125.265 E4.82654
G1 X164.78 Y125.358 E4.82932
G1 X165.055 Y125.818 E4.84288
G1 X165.444 Y126.516 E4.86311
G1 X165.497 Y126.616 E4.86598
G1 X165.893 Y127.396 E4.88812
G1 X166.138 Y127.917 E4.9027
G1 X166.184 Y128.02 E4.90555
G1 X166.464 Y128.674 E4.92356
G1 X166.732 Y129.355 E4.94209
G1 X166.772 Y129.464 E4.94503
G1 X167.067 Y130.311 E4.96774
G1 X167.236 Y130.851 E4.98206
G1 X167.462 Y131.667 E5.0035
G1 X167.489 Y131.771 E5.00622
G1 X167.662 Y132.5 E5.02518
G1 X167.81 Y133.217 E5.04372
G1 X167.831 Y133.327 E5.04655
G1 X167.917 Y133.832 E5.05952
G1 X168.055 Y134.846 E5.08543
G1 X168.068 Y134.954 E5.08818
G1 X168.128 Y135.566 E5.10375
G1 X168.173 Y136.231 E5.12062
G1 X168.204 Y137.1 E5.14264
G1 X168.206 Y137.214 E5.14552
G1 X168.205 Y137.845 E5.1615
G1 X168.179 Y138.651 E5.18191
G1 X168.173 Y138.764 E5.18478
G1 X168.114 Y139.599 E5.20597
G1 X168.055 Y140.16 E5.22025
G1 X167.929 Y141.087 E5.24393
G1 X167.821 Y141.722 E5.26024
G1 X167.659 Y142.517 E5.28078
G1 X167.635 Y142.624 E5.28356
G1 X167.449 Y143.388 E5.30346
G1 X167.259 Y144.071 E5.32141
G1 X167.228 Y144.175 E5.32416
G1 X167.018 Y144.837 E5.34174
G1 X166.78 Y145.516 E5.35995
G1 X166.497 Y146.247 E5.3798
G1 X166.158 Y147.037 E5.40156
G1 X166.115 Y147.134 E5.40425
G1 X165.877 Y147.639 E5.41838
G1 X165.512 Y148.356 E5.43875
G1 X165.46 Y148.454 E5.44156
G1 X165.089 Y149.121 E5.46088
G1 X164.743 Y149.699 E5.47793
G1 X164.305 Y150.381 E5.49845
G1 X164.239 Y150.48 E5.50146
G1 X163.828 Y151.068 E5.51963
G1 X163.401 Y151.641 E5.53772
G1 X163.334 Y151.728 E5.5405
G1 X162.845 Y152.337 E5.56027
G1 X162.776 Y152.42 E5.563
G1 X162.363 Y152.898 E5.57899
G1 X161.787 Y153.525 E5.60055
G1 X161.327 Y153.994 E5.61718
G1 X161.254 Y154.067 E5.61979
G1 X160.795 Y154.504 E5.63584
G1 X160.063 Y155.154 E5.66062
G1 X159.984 Y155.222 E5.66326
G1 X159.575 Y155.561 E5.67671
G1 X158.922 Y156.067 E5.69762
G1 X158.839 Y156.13 E5.70026
G1 X158.278 Y156.535 E5.71777
G1 X157.674 Y156.942 E5.73621
G1 X156.939 Y157.401 E5.75815
G1 X156.847 Y157.456 E5.76086
G1 X156.23 Y157.81 E5.77887
G1 X155.564 Y158.165 E5.79798
G1 X155.464 Y158.216 E5.80082
G1 X154.882 Y158.499 E5.8172
G1 X154.093 Y158.853 E5.8391
G1 X153.553 Y159.075 E5.85388
G1 X152.656 Y159.408 E5.8781
G1 X152.551 Y159.445 E5.88092
G1 X151.903 Y159.658 E5.89819
G1 X151.234 Y159.855 E5.91584
G1 X150.476 Y160.051 E5.93566
G1 X150.377 Y160.075 E5.93824
G1 X149.551 Y160.258 E5.95966
G1 X149.048 Y160.352 E5.97261
G1 X148.043 Y160.507 E5.99836
G1 X147.5 Y160.573 E6.0122
G1 X147.393 Y160.584 E6.01493
G1 X146.484 Y160.66 E6.03802
G1 X145.865 Y160.692 E6.05371
G1 X145.764 Y160.696 E6.05627
G1 X145.075 Y160.708 E6.07372
G1 X144.176 Y160.693 E6.09648
G1 X143.593 Y160.666 E6.11125
G1 X143.479 Y160.658 E6.11415
G1 X142.558 Y160.579 E6.13755
