;FLAVOR:Marlin
;TIME:5474
;Filament used: 2.82588m
;Layer height: 0.38
;MINX:66.353
;MINY:104.208
;MINZ:0.425
;MAXX:223.553
;MAXY:171.408
;MAXZ:8.025
;Generated with Cura_SteamEngine 4.13.8
M82 ;absolute extrusion mode
;This G-Code has been generated specifically for the LulzBot TAZ 5 | Single Extruder

;SETTINGS
;Nozzle diameter = 0.4mm
;Filament name = Polymaker PolyLite PLA
;Filament type = PLA (Easy Printing) 2.85
;Filament weight = ~21.09g
;Extruder temp = M109 S205
;Bed temp = M190 S65

M73 P0                                      ; clear GLCD progress bar
M75			                                ; start GLCD timer
M140 S65    ; start bed heating up
G90                                         ; absolute positioning
M107                                        ; disable fans
M82                                         ; set extruder to absolute mode
G28 X0 Y0                                   ; home X and Y
G28 Z0                                      ; home Z
G1 Z15.0 F175                    ; move extruder up
M117 Heating...                             ; progress indicator message on LCD
M109 R205  ; wait for extruder to reach printing temp
M190 R65    ; wait for bed to reach printing temp
G92 E0                                      ; set extruder position to 0
G1 F200 E0                                  ; prime the nozzle with filament
G92 E0                                      ; re-set extruder position to 0
G1 F175                          ; set travel speed
M203 X192 Y208 Z3                           ; set limits on travel speed
M117 TAZ 5 Printing...                      ; progress indicator message on LCD
;Start G-Code End

G92 E0
G92 E0
G1 F600 E-1.75
;LAYER_COUNT:21
;LAYER:0
M106 S255
G0 F2625 X70.229 Y105.634 Z0.425
;TYPE:SKIRT
G1 F600 E0
G1 F900 X70.779 Y105.305 E0.01622
G1 X71.369 Y105.002 E0.03302
G1 X71.965 Y104.755 E0.04935
G1 X72.53 Y104.571 E0.06439
G1 X73.276 Y104.384 E0.08386
G1 X73.848 Y104.291 E0.09853
G1 X74.438 Y104.237 E0.11353
G1 X74.932 Y104.216 E0.12605
G1 X75.566 Y104.208 E0.1421
G1 X214.299 Y104.208 E3.65425
G1 X215.046 Y104.219 E3.67316
G1 X215.79 Y104.261 E3.69202
G1 X216.329 Y104.332 E3.70579
G1 X217.011 Y104.469 E3.7234
G1 X217.648 Y104.653 E3.74018
G1 X218.177 Y104.85 E3.75447
G1 X218.848 Y105.153 E3.77311
G1 X219.398 Y105.46 E3.78906
G1 X219.892 Y105.785 E3.80403
G1 X220.403 Y106.171 E3.82024
G1 X220.917 Y106.629 E3.83767
G1 X221.305 Y107.031 E3.85181
G1 X221.755 Y107.566 E3.86951
G1 X222.133 Y108.097 E3.88601
G1 X222.425 Y108.578 E3.90026
G1 X222.685 Y109.067 E3.91428
G1 X223.003 Y109.816 E3.93488
G1 X223.177 Y110.342 E3.9489
G1 X223.383 Y111.171 E3.97053
G1 X223.464 Y111.667 E3.98325
G1 X223.519 Y112.214 E3.99717
G1 X223.543 Y112.746 E4.01065
G1 X223.553 Y113.481 E4.02926
G1 X223.553 Y162.154 E5.26146
G1 X223.543 Y162.837 E5.27875
G1 X223.521 Y163.358 E5.29195
G1 X223.472 Y163.899 E5.30571
G1 X223.357 Y164.571 E5.32297
G1 X223.221 Y165.122 E5.33733
G1 X223.002 Y165.803 E5.35544
G1 X222.758 Y166.388 E5.37149
G1 X222.53 Y166.846 E5.38444
G1 X222.145 Y167.499 E5.40363
G1 X221.759 Y168.045 E5.42056
G1 X221.396 Y168.481 E5.43492
G1 X220.884 Y169.02 E5.45374
G1 X220.426 Y169.426 E5.46924
G1 X220.012 Y169.746 E5.48248
G1 X219.391 Y170.161 E5.50139
G1 X218.818 Y170.477 E5.51796
G1 X218.277 Y170.724 E5.53301
G1 X217.677 Y170.953 E5.54927
G1 X217.028 Y171.142 E5.56638
G1 X216.4 Y171.27 E5.58261
G1 X215.793 Y171.355 E5.59813
G1 X215.143 Y171.394 E5.61461
G1 X215.027 Y171.398 E5.61755
G1 X214.306 Y171.408 E5.6358
G1 X75.607 Y171.408 E9.14709
G1 X74.824 Y171.395 E9.16692
G1 X74.154 Y171.359 E9.1839
G1 X73.554 Y171.279 E9.19923
G1 X72.895 Y171.145 E9.21625
G1 X72.263 Y170.964 E9.23289
G1 X71.69 Y170.75 E9.24838
G1 X71.084 Y170.476 E9.26521
G1 X70.503 Y170.153 E9.28204
G1 X70.019 Y169.835 E9.2967
G1 X69.493 Y169.437 E9.3134
G1 X68.961 Y168.96 E9.33149
G1 X68.542 Y168.52 E9.34687
G1 X68.15 Y168.05 E9.36237
G1 X67.757 Y167.497 E9.37954
G1 X67.465 Y167.009 E9.39394
G1 X67.145 Y166.387 E9.41165
G1 X66.9 Y165.795 E9.42787
G1 X66.714 Y165.223 E9.44309
G1 X66.551 Y164.587 E9.45971
G1 X66.437 Y163.914 E9.47699
G1 X66.382 Y163.302 E9.49255
G1 X66.361 Y162.83 E9.50451
G1 X66.353 Y162.195 E9.52059
G1 X66.353 Y113.462 E10.75431
G1 X66.364 Y112.71 E10.77335
G1 X66.403 Y112 E10.79135
G1 X66.477 Y111.436 E10.80575
G1 X66.614 Y110.749 E10.82348
G1 X66.798 Y110.112 E10.84027
G1 X66.995 Y109.583 E10.85456
G1 X67.289 Y108.93 E10.87269
G1 X67.619 Y108.337 E10.88987
G1 X67.896 Y107.914 E10.90267
G1 X68.323 Y107.349 E10.9206
G1 X68.775 Y106.843 E10.93777
G1 X69.183 Y106.448 E10.95215
G1 X69.663 Y106.043 E10.96805
G1 X70.229 Y105.634 E10.98573
G0 F2625 X70.458 Y105.962
G1 F900 X70.976 Y105.653 E11.001
G1 X71.527 Y105.369 E11.01669
G1 X72.114 Y105.127 E11.03276
G1 X72.644 Y104.954 E11.04688
G1 X73.345 Y104.778 E11.06518
G1 X73.909 Y104.686 E11.07964
G1 X74.465 Y104.636 E11.09377
G1 X74.937 Y104.616 E11.10573
G1 X75.571 Y104.608 E11.12179
G1 X214.293 Y104.608 E14.63365
G1 X215.04 Y104.619 E14.65257
G1 X215.761 Y104.66 E14.67085
G1 X216.267 Y104.728 E14.68377
G1 X216.907 Y104.856 E14.7003
G1 X217.532 Y105.036 E14.71676
G1 X218.028 Y105.222 E14.73017
G1 X218.659 Y105.506 E14.74769
G1 X219.2 Y105.807 E14.76336
G1 X219.665 Y106.114 E14.77747
G1 X220.143 Y106.474 E14.79262
G1 X220.647 Y106.923 E14.80971
G1 X221.011 Y107.303 E14.82303
G1 X221.432 Y107.802 E14.83956
G1 X221.805 Y108.325 E14.85582
G1 X222.078 Y108.778 E14.86921
G1 X222.325 Y109.242 E14.88252
G1 X222.631 Y109.965 E14.90239
G1 X222.794 Y110.459 E14.91556
G1 X222.988 Y111.235 E14.93581
G1 X223.069 Y111.731 E14.94853
G1 X223.12 Y112.244 E14.96159
G1 X223.143 Y112.751 E14.97443
G1 X223.153 Y113.486 E14.99304
G1 X223.153 Y162.148 E16.22496
G1 X223.143 Y162.831 E16.24226
G1 X223.104 Y163.585 E16.26137
G1 X223.039 Y164.084 E16.27411
G1 X222.929 Y164.663 E16.28903
G1 X222.725 Y165.385 E16.30802
G1 X222.538 Y165.883 E16.32149
G1 X222.281 Y166.46 E16.33748
G1 X221.948 Y167.062 E16.3549
G1 X221.657 Y167.505 E16.36831
G1 X221.276 Y168.009 E16.38431
G1 X220.8 Y168.539 E16.40234
G1 X220.409 Y168.91 E16.41599
G1 X219.966 Y169.283 E16.43065
G1 X219.445 Y169.655 E16.44686
G1 X218.929 Y169.963 E16.46207
G1 X218.389 Y170.24 E16.47743
G1 X217.768 Y170.497 E16.49445
G1 X217.228 Y170.673 E16.50883
G1 X216.664 Y170.815 E16.52355
G1 X215.985 Y170.93 E16.54098
G1 X215.428 Y170.981 E16.55514
G1 X215.021 Y170.998 E16.56546
G1 X214.3 Y171.008 E16.58371
G1 X75.613 Y171.008 E20.09469
G1 X74.93 Y170.998 E20.11199
G1 X74.429 Y170.977 E20.12468
G1 X73.74 Y170.905 E20.14222
G1 X73 Y170.76 E20.16131
G1 X72.379 Y170.581 E20.17767
G1 X71.848 Y170.383 E20.19202
G1 X71.272 Y170.123 E20.20802
G1 X70.702 Y169.806 E20.22453
G1 X70.245 Y169.506 E20.23837
G1 X69.754 Y169.135 E20.25395
G1 X69.232 Y168.666 E20.27171
G1 X68.844 Y168.258 E20.28596
G1 X68.473 Y167.813 E20.30063
G1 X68.087 Y167.27 E20.3175
G1 X67.812 Y166.811 E20.33104
G1 X67.512 Y166.229 E20.34762
G1 X67.271 Y165.646 E20.36359
G1 X67.097 Y165.109 E20.37788
G1 X66.944 Y164.512 E20.39348
G1 X66.832 Y163.853 E20.41041
G1 X66.781 Y163.274 E20.42512
G1 X66.761 Y162.825 E20.4365
G1 X66.753 Y162.19 E20.45257
G1 X66.753 Y113.468 E21.68601
G1 X66.766 Y112.64 E21.70698
G1 X66.802 Y112.028 E21.7225
G1 X66.872 Y111.496 E21.73608
G1 X67.001 Y110.853 E21.75269
G1 X67.181 Y110.228 E21.76915
G1 X67.367 Y109.732 E21.78256
G1 X67.642 Y109.119 E21.79957
G1 X67.966 Y108.537 E21.81643
G1 X68.277 Y108.068 E21.83068
G1 X68.625 Y107.611 E21.84522
G1 X69.069 Y107.113 E21.86211
G1 X69.455 Y106.741 E21.87568
G1 X69.903 Y106.362 E21.89054
G1 X70.458 Y105.962 E21.90786
G1 F600 E20.15786
;MESH:Quad_Controller_Lower_Plate.stl
G0 F2625 X69.884 Y110.284
G0 X71.009 Y110.906
G0 X71.744 Y116.196
G0 X84.726 Y166.175
;TYPE:WALL-INNER
G1 F600 E21.90786
G1 F900 X84.958 Y166.408 E21.91618
G1 X75.002 Y166.408 E22.16823
G1 X74.147 Y166.314 E22.19
G1 X73.378 Y166.043 E22.21064
G1 X73.052 Y165.863 E22.22007
G1 X72.401 Y165.346 E22.24112
G1 X71.911 Y164.73 E22.26104
G1 X71.558 Y163.997 E22.28164
G1 X71.377 Y163.203 E22.30226
G1 X71.353 Y162.797 E22.31255
G1 X71.353 Y161.739 E22.33934
G1 X71.353 Y161.317 E22.35002
G1 X71.649 Y161.739 E22.35593
G1 X72.021 Y162.112 E22.36927
G1 X72.453 Y162.412 E22.38258
G1 X72.923 Y162.631 E22.39571
G1 X73.431 Y162.767 E22.40903
G1 X73.953 Y162.812 E22.42229
G1 X74.475 Y162.767 E22.43555
G1 X74.98 Y162.631 E22.44879
G1 X75.456 Y162.412 E22.46206
G1 X75.884 Y162.109 E22.47533
G1 X76.255 Y161.739 E22.4886
G1 X76.556 Y161.311 E22.50184
G1 X76.776 Y160.836 E22.5151
G1 X76.911 Y160.332 E22.52831
G1 X76.96 Y159.808 E22.54163
G1 X76.911 Y159.284 E22.55495
G1 X76.776 Y158.78 E22.56816
G1 X76.556 Y158.306 E22.58139
G1 X76.256 Y157.876 E22.59466
G1 X75.884 Y157.504 E22.60798
G1 X75.455 Y157.204 E22.62123
G1 X74.98 Y156.984 E22.63449
G1 X74.472 Y156.846 E22.64781
G1 X73.953 Y156.804 E22.661
G1 X73.433 Y156.846 E22.6742
G1 X72.922 Y156.984 E22.6876
G1 X72.45 Y157.204 E22.70079
G1 X72.021 Y157.504 E22.71404
G1 X71.649 Y157.876 E22.72736
G1 X71.353 Y158.299 E22.74043
G1 X71.353 Y157.876 E22.74399
G1 X71.353 Y139.739 E23.20314
G1 X71.353 Y139.317 E23.21383
G1 X71.649 Y139.739 E23.21974
G1 X72.021 Y140.112 E23.23308
G1 X72.453 Y140.412 E23.24639
G1 X72.923 Y140.631 E23.25952
G1 X73.431 Y140.767 E23.27283
G1 X73.953 Y140.812 E23.2861
G1 X74.475 Y140.767 E23.29936
G1 X74.98 Y140.631 E23.3126
G1 X75.456 Y140.412 E23.32586
G1 X75.884 Y140.109 E23.33914
G1 X76.255 Y139.739 E23.35241
G1 X76.556 Y139.311 E23.36565
G1 X76.776 Y138.836 E23.3789
G1 X76.911 Y138.332 E23.39211
G1 X76.96 Y137.808 E23.40544
G1 X76.911 Y137.284 E23.41876
G1 X76.776 Y136.78 E23.43197
G1 X76.556 Y136.306 E23.4452
G1 X76.256 Y135.876 E23.45847
G1 X75.884 Y135.504 E23.47179
G1 X75.455 Y135.204 E23.48504
G1 X74.98 Y134.984 E23.49829
G1 X74.472 Y134.846 E23.51162
G1 X73.953 Y134.804 E23.5248
G1 X73.433 Y134.846 E23.53801
G1 X72.922 Y134.984 E23.55141
G1 X72.45 Y135.204 E23.56459
G1 X72.021 Y135.504 E23.57785
G1 X71.649 Y135.876 E23.59116
G1 X71.353 Y136.299 E23.60423
G1 X71.353 Y135.876 E23.6078
G1 X71.353 Y117.739 E24.06695
G1 X71.353 Y117.317 E24.07763
G1 X71.649 Y117.739 E24.08355
G1 X72.021 Y118.112 E24.09688
G1 X72.453 Y118.412 E24.1102
G1 X72.923 Y118.631 E24.12333
G1 X73.431 Y118.767 E24.13664
G1 X73.953 Y118.812 E24.1499
G1 X74.475 Y118.767 E24.16317
G1 X74.98 Y118.631 E24.17641
G1 X75.456 Y118.412 E24.18967
G1 X75.884 Y118.109 E24.20295
G1 X76.255 Y117.739 E24.21621
G1 X76.556 Y117.311 E24.22946
G1 X76.776 Y116.836 E24.24271
G1 X76.911 Y116.332 E24.25592
G1 X76.96 Y115.808 E24.26924
G1 X76.911 Y115.284 E24.28257
G1 X76.776 Y114.78 E24.29578
G1 X76.556 Y114.306 E24.309
G1 X76.256 Y113.876 E24.32228
G1 X75.884 Y113.504 E24.3356
G1 X75.455 Y113.204 E24.34885
G1 X74.98 Y112.984 E24.3621
G1 X74.472 Y112.846 E24.37543
G1 X73.953 Y112.804 E24.38861
G1 X73.433 Y112.846 E24.40182
G1 X72.922 Y112.984 E24.41522
G1 X72.45 Y113.204 E24.4284
G1 X72.021 Y113.504 E24.44165
G1 X71.649 Y113.876 E24.45497
G1 X71.353 Y114.299 E24.46804
G1 X71.353 Y113.876 E24.4716
G1 X71.353 Y112.845 E24.49771
G1 X71.448 Y111.991 E24.51946
G1 X71.548 Y111.644 E24.5286
G1 X71.907 Y110.894 E24.54965
G1 X72.139 Y110.566 E24.55982
G1 X72.716 Y109.989 E24.58048
G1 X73.033 Y109.765 E24.59031
G1 X73.785 Y109.404 E24.61142
G1 X74.136 Y109.303 E24.62067
G1 X74.999 Y109.208 E24.64265
G1 X84.959 Y109.208 E24.8948
G1 X84.726 Y109.442 E24.90316
G1 X84.438 Y109.854 E24.91588
G1 X84.223 Y110.311 E24.92867
G1 X84.089 Y110.803 E24.94158
G1 X84.046 Y111.312 E24.95451
G1 X84.098 Y111.884 E24.96905
G1 X84.409 Y112.72 E24.99163
G1 X84.726 Y113.175 E25.00567
G1 X85.085 Y113.535 E25.01854
G1 X85.503 Y113.825 E25.03142
G1 X85.959 Y114.037 E25.04415
G1 X86.446 Y114.168 E25.05692
G1 X86.953 Y114.215 E25.06981
G1 X87.459 Y114.168 E25.08267
G1 X87.946 Y114.037 E25.09544
G1 X88.404 Y113.825 E25.10821
G1 X88.82 Y113.535 E25.12105
G1 X89.18 Y113.175 E25.13394
G1 X89.47 Y112.759 E25.14678
G1 X89.682 Y112.301 E25.15956
G1 X89.813 Y111.814 E25.17232
G1 X89.86 Y111.308 E25.18519
G1 X89.813 Y110.801 E25.19808
G1 X89.682 Y110.314 E25.21084
G1 X89.47 Y109.855 E25.22364
G1 X89.178 Y109.441 E25.23647
G1 X88.946 Y109.208 E25.24479
G1 X200.959 Y109.208 E28.0805
G1 X200.726 Y109.442 E28.08886
G1 X200.438 Y109.854 E28.10159
G1 X200.223 Y110.311 E28.11437
G1 X200.089 Y110.803 E28.12728
G1 X200.046 Y111.312 E28.14021
G1 X200.098 Y111.884 E28.15475
G1 X200.409 Y112.72 E28.17733
G1 X200.726 Y113.175 E28.19137
G1 X201.085 Y113.535 E28.20424
G1 X201.503 Y113.825 E28.21712
G1 X201.959 Y114.037 E28.22985
G1 X202.446 Y114.168 E28.24262
G1 X202.953 Y114.215 E28.25551
G1 X203.459 Y114.168 E28.26838
G1 X203.946 Y114.037 E28.28114
G1 X204.404 Y113.825 E28.29392
G1 X204.82 Y113.535 E28.30676
G1 X205.18 Y113.175 E28.31965
G1 X205.47 Y112.759 E28.33248
G1 X205.682 Y112.301 E28.34526
G1 X205.813 Y111.814 E28.35803
G1 X205.86 Y111.308 E28.37089
G1 X205.813 Y110.801 E28.38378
G1 X205.682 Y110.314 E28.39655
G1 X205.47 Y109.855 E28.40935
G1 X205.178 Y109.441 E28.42217
G1 X204.946 Y109.208 E28.4305
G1 X214.907 Y109.208 E28.68267
G1 X215.769 Y109.303 E28.70462
G1 X216.12 Y109.404 E28.71387
G1 X216.872 Y109.765 E28.73499
G1 X217.189 Y109.989 E28.74482
G1 X217.759 Y110.559 E28.76522
G1 X218.199 Y111.258 E28.78613
G1 X218.457 Y111.991 E28.8058
G1 X218.553 Y112.846 E28.82759
G1 X218.553 Y113.876 E28.85366
G1 X218.553 Y114.302 E28.86445
G1 X218.256 Y113.876 E28.87041
G1 X217.884 Y113.504 E28.88373
G1 X217.455 Y113.204 E28.89698
G1 X216.98 Y112.984 E28.91023
G1 X216.472 Y112.846 E28.92356
G1 X215.953 Y112.804 E28.93674
G1 X215.433 Y112.846 E28.94995
G1 X214.922 Y112.984 E28.96335
G1 X214.45 Y113.204 E28.97653
G1 X214.021 Y113.504 E28.98978
G1 X213.649 Y113.876 E29.0031
G1 X213.349 Y114.305 E29.01635
G1 X213.129 Y114.778 E29.02956
G1 X212.991 Y115.288 E29.04294
G1 X212.949 Y115.808 E29.05614
G1 X212.991 Y116.328 E29.06935
G1 X213.129 Y116.838 E29.08273
G1 X213.349 Y117.311 E29.09593
G1 X213.649 Y117.739 E29.10916
G1 X214.021 Y118.112 E29.1225
G1 X214.453 Y118.412 E29.13582
G1 X214.923 Y118.631 E29.14894
G1 X215.431 Y118.767 E29.16226
G1 X215.953 Y118.812 E29.17552
G1 X216.475 Y118.767 E29.18878
G1 X216.98 Y118.631 E29.20202
G1 X217.456 Y118.412 E29.21529
G1 X217.884 Y118.109 E29.22856
G1 X218.255 Y117.739 E29.24183
G1 X218.553 Y117.315 E29.25495
G1 X218.553 Y117.739 E29.25855
G1 X218.553 Y135.876 E29.7177
G1 X218.553 Y136.302 E29.72849
G1 X218.256 Y135.876 E29.73445
G1 X217.884 Y135.504 E29.74777
G1 X217.455 Y135.204 E29.76102
G1 X216.98 Y134.984 E29.77427
G1 X216.472 Y134.846 E29.7876
G1 X215.953 Y134.804 E29.80078
G1 X215.433 Y134.846 E29.81399
G1 X214.922 Y134.984 E29.82739
G1 X214.45 Y135.204 E29.84057
G1 X214.021 Y135.504 E29.85383
G1 X213.649 Y135.876 E29.86714
G1 X213.349 Y136.305 E29.8804
G1 X213.129 Y136.778 E29.8936
G1 X212.991 Y137.288 E29.90698
G1 X212.949 Y137.808 E29.92019
G1 X212.991 Y138.328 E29.93339
G1 X213.129 Y138.838 E29.94677
G1 X213.349 Y139.311 E29.95997
G1 X213.649 Y139.739 E29.97321
G1 X214.021 Y140.112 E29.98654
G1 X214.453 Y140.412 E29.99986
G1 X214.923 Y140.631 E30.01298
G1 X215.431 Y140.767 E30.0263
G1 X215.953 Y140.812 E30.03956
G1 X216.475 Y140.767 E30.05283
G1 X216.98 Y140.631 E30.06607
G1 X217.456 Y140.412 E30.07933
G1 X217.884 Y140.109 E30.09261
G1 X218.255 Y139.739 E30.10587
G1 X218.553 Y139.315 E30.11899
G1 X218.553 Y139.739 E30.12259
G1 X218.553 Y157.876 E30.58175
G1 X218.553 Y158.302 E30.59253
G1 X218.256 Y157.876 E30.59849
G1 X217.884 Y157.504 E30.61181
G1 X217.455 Y157.204 E30.62506
G1 X216.98 Y156.984 E30.63832
G1 X216.472 Y156.846 E30.65164
G1 X215.953 Y156.804 E30.66483
G1 X215.433 Y156.846 E30.67803
G1 X214.922 Y156.984 E30.69143
G1 X214.45 Y157.204 E30.70462
G1 X214.021 Y157.504 E30.71787
G1 X213.649 Y157.876 E30.73119
G1 X213.349 Y158.305 E30.74444
G1 X213.129 Y158.778 E30.75765
G1 X212.991 Y159.288 E30.77102
G1 X212.949 Y159.808 E30.78423
G1 X212.991 Y160.328 E30.79744
G1 X213.129 Y160.838 E30.81081
G1 X213.349 Y161.311 E30.82402
G1 X213.649 Y161.739 E30.83725
G1 X214.021 Y162.112 E30.85059
G1 X214.453 Y162.412 E30.8639
